icons/breezeDark/actions/24/profile-path.svg

<svg viewBox="0 0 24 24" xmlns="http://www.w3.org/2000/svg"><path d="m4 5.0292969v16.0000001h1v-15.0000001h10.060547a2.5 2.5 0 0 1 -.060547-.5292969 2.5 2.5 0 0 1 .046875-.4707031z" fill="#da4453"/><path d="m7 8v13h1v-12h12v-1z" fill="#c0c0c0"/><path d="m8 9v12h12v-12z" fill="#c0c0c0" fill-opacity=".501961"/><path d="m17.5 3a2.5 2.5 0 0 0 -2.5 2.5 2.5 2.5 0 0 0 2.5 2.5 2.5 2.5 0 0 0 2.5-2.5 2.5 2.5 0 0 0 -2.5-2.5zm0 1a1.5 1.5 0 0 1 1.5 1.5 1.5 1.5 0 0 1 -1.5 1.5 1.5 1.5 0 0 1 -1.5-1.5 1.5 1.5 0 0 1 1.5-1.5z" fill="#3daee9"/></svg>

<?xml version="1.0" encoding="UTF-8" standalone="no"?>
<svg
   xmlns:dc="http://purl.org/dc/elements/1.1/"
   xmlns:cc="http://creativecommons.org/ns#"
   xmlns:rdf="http://www.w3.org/1999/02/22-rdf-syntax-ns#"
   xmlns:svg="http://www.w3.org/2000/svg"
   xmlns="http://www.w3.org/2000/svg"
   xmlns:sodipodi="http://sodipodi.sourceforge.net/DTD/sodipodi-0.dtd"
   xmlns:inkscape="http://www.inkscape.org/namespaces/inkscape"
   viewBox="0 0 24 24"
   version="1.1"
   id="svg8"
   sodipodi:docname="object-to-path.svg"
   inkscape:version="0.92.4 (5da689c313, 2019-01-14)">
  <metadata
     id="metadata12">
    <rdf:RDF>
      <cc:Work
         rdf:about="">
        <dc:format>image/svg+xml</dc:format>
        <dc:type
           rdf:resource="http://purl.org/dc/dcmitype/StillImage" />
        <dc:title></dc:title>
      </cc:Work>
    </rdf:RDF>
  </metadata>
  <sodipodi:namedview
     pagecolor="#ffffff"
     bordercolor="#666666"
     borderopacity="1"
     objecttolerance="10"
     gridtolerance="10"
     guidetolerance="10"
     inkscape:pageopacity="0"
     inkscape:pageshadow="2"
     inkscape:window-width="1354"
     inkscape:window-height="1066"
     id="namedview10"
     showgrid="true"
     inkscape:zoom="27.812867"
     inkscape:cx="11.51792"
     inkscape:cy="9.0698815"
     inkscape:window-x="2036"
     inkscape:window-y="730"
     inkscape:window-maximized="0"
     inkscape:current-layer="svg8"
     showguides="false">
    <inkscape:grid
       type="xygrid"
       id="grid822"
       empspacing="8" />
  </sodipodi:namedview>
  <defs
     id="defs3051">
    <style
       type="text/css"
       id="current-color-scheme">
      .ColorScheme-Text {
        color:#c0c0c0;
      }
      .ColorScheme-Highlight {
        color:#3daee9;
      }
      </style>
  </defs>
  <path
     style="fill:#da4453;fill-opacity:1;stroke:none;stroke-opacity:1"
     d="M 4 5.0292969 L 4 21.029297 L 5 21.029297 L 5 6.0292969 L 15.060547 6.0292969 A 2.5 2.5 0 0 1 15 5.5 A 2.5 2.5 0 0 1 15.046875 5.0292969 L 4 5.0292969 z "
     id="rect853" />
  <path
     style="fill:#c0c0c0;fill-opacity:1;stroke:none;stroke-opacity:1"
     d="M 7 8 L 7 21 L 8 21 L 8 9 L 20 9 L 20 8 L 7 8 z "
     id="rect867" />
  <path
     style="fill:#c0c0c0;fill-opacity:0.50196078;stroke:none;stroke-opacity:1"
     d="M 8 9 L 8 21 L 20 21 L 20 9 L 8 9 z "
     id="rect872" />
  <path
     style="fill:#3daee9;fill-opacity:1;stroke:none;stroke-opacity:1"
     d="M 17.5 3 A 2.5 2.5 0 0 0 15 5.5 A 2.5 2.5 0 0 0 17.5 8 A 2.5 2.5 0 0 0 20 5.5 A 2.5 2.5 0 0 0 17.5 3 z M 17.5 4 A 1.5 1.5 0 0 1 19 5.5 A 1.5 1.5 0 0 1 17.5 7 A 1.5 1.5 0 0 1 16 5.5 A 1.5 1.5 0 0 1 17.5 4 z "
     id="path882" />
</svg>
